assets/img/icons/lightbulb.svg

<svg fill="none" height="64" viewBox="0 0 64 64" width="64" xmlns="http://www.w3.org/2000/svg" xmlns:xlink="http://www.w3.org/1999/xlink"><mask id="a" fill="#fff"><path clip-rule="evenodd" d="m40 43.7374c5.9537-3.2082 10-9.5003 10-16.7374 0-10.4934-8.5066-19-19-19s-19 8.5066-19 19c0 7.2371 4.0463 13.5292 10 16.7374v12.2626c0 1.1046.8954 2 2 2h14c1.1046 0 2-.8954 2-2z" fill="#fff" fill-rule="evenodd"/></mask><path clip-rule="evenodd" d="m40 43.7374c5.9537-3.2082 10-9.5003 10-16.7374 0-10.4934-8.5066-19-19-19s-19 8.5066-19 19c0 7.2371 4.0463 13.5292 10 16.7374v12.2626c0 1.1046.8954 2 2 2h14c1.1046 0 2-.8954 2-2z" fill="#fff" fill-rule="evenodd"/><path d="m40 43.7374-.9487-1.7607-1.0513.5665v1.1942zm-18 0h2v-1.1942l-1.0513-.5665zm26-16.7374c0 6.4726-3.6166 12.1035-8.9487 14.9767l1.8974 3.5213c6.5753-3.5431 11.0513-10.4963 11.0513-18.498zm-17-17c9.3888 0 17 7.6112 17 17h4c0-11.598-9.402-21-21-21zm-17 17c0-9.3888 7.6112-17 17-17v-4c-11.598 0-21 9.402-21 21zm8.9487 14.9767c-5.3321-2.8732-8.9487-8.5041-8.9487-14.9767h-4c0 8.0017 4.476 14.9549 11.0513 18.498zm1.0513 14.0233v-12.2626h-4v12.2626zm0 0h-4c0 2.2091 1.7909 4 4 4zm14 0h-14v4h14zm0 0v4c2.2091 0 4-1.7909 4-4zm0-12.2626v12.2626h4v-12.2626z" fill="#000" mask="url(#a)"/><g stroke="#000" stroke-width="2"><path d="m23 46h16l-16 11" stroke-linejoin="bevel"/><path d="m31 6v-6"/><path d="m52 27h6"/><path d="m4 27h6"/><path d="m8.70711 8.67156 4.24259 4.24264"/><path d="m0-1h6" transform="matrix(-.707107 .707107 .707107 .707107 56.2427 9.37866)"/></g><circle cx="31" cy="27" fill="#c4f0f5" r="13"/><path d="m31 45v-13m0 0-4-4m4 4 4-4" stroke="#000" stroke-width="2"/></svg>

<svg width="64" height="64" viewBox="0 0 64 64" fill="none" xmlns="http://www.w3.org/2000/svg">
<mask id="path-1-inside-1_1_7970" fill="white">
<path fill-rule="evenodd" clip-rule="evenodd" d="M40 43.7374C45.9537 40.5292 50 34.2371 50 27C50 16.5066 41.4934 8 31 8C20.5066 8 12 16.5066 12 27C12 34.2371 16.0463 40.5292 22 43.7374V56C22 57.1046 22.8954 58 24 58H38C39.1046 58 40 57.1046 40 56V43.7374Z"/>
</mask>
<path fill-rule="evenodd" clip-rule="evenodd" d="M40 43.7374C45.9537 40.5292 50 34.2371 50 27C50 16.5066 41.4934 8 31 8C20.5066 8 12 16.5066 12 27C12 34.2371 16.0463 40.5292 22 43.7374V56C22 57.1046 22.8954 58 24 58H38C39.1046 58 40 57.1046 40 56V43.7374Z" fill="white"/>
<path d="M40 43.7374L39.0513 41.9767L38 42.5432V43.7374H40ZM22 43.7374H24V42.5432L22.9487 41.9767L22 43.7374ZM48 27C48 33.4726 44.3834 39.1035 39.0513 41.9767L40.9487 45.498C47.524 41.9549 52 35.0017 52 27H48ZM31 10C40.3888 10 48 17.6112 48 27H52C52 15.402 42.598 6 31 6V10ZM14 27C14 17.6112 21.6112 10 31 10V6C19.402 6 10 15.402 10 27H14ZM22.9487 41.9767C17.6166 39.1035 14 33.4726 14 27H10C10 35.0017 14.476 41.9549 21.0513 45.498L22.9487 41.9767ZM24 56V43.7374H20V56H24ZM24 56H20C20 58.2091 21.7909 60 24 60V56ZM38 56H24V60H38V56ZM38 56V60C40.2091 60 42 58.2091 42 56H38ZM38 43.7374V56H42V43.7374H38Z" fill="black" mask="url(#path-1-inside-1_1_7970)"/>
<path d="M23 46H39L23 57" stroke="black" stroke-width="2" stroke-linejoin="bevel"/>
<line x1="31" y1="6" x2="31" y2="-4.37114e-08" stroke="black" stroke-width="2"/>
<line x1="52" y1="27" x2="58" y2="27" stroke="black" stroke-width="2"/>
<line x1="4" y1="27" x2="10" y2="27" stroke="black" stroke-width="2"/>
<line x1="8.70711" y1="8.67156" x2="12.9497" y2="12.9142" stroke="black" stroke-width="2"/>
<line y1="-1" x2="6" y2="-1" transform="matrix(-0.707107 0.707107 0.707107 0.707107 56.2427 9.37866)" stroke="black" stroke-width="2"/>
<circle cx="31" cy="27" r="13" fill="#C4F0F5"/>
<path d="M31 45V32M31 32L27 28M31 32L35 28" stroke="black" stroke-width="2"/>
</svg>
